packages/tokens/icons/integrity2/size24Px.svg

<svg viewBox="0 0 24 24" fill="none" xmlns="http://www.w3.org/2000/svg" width="1em" height="1em"><path d="M8.49988 21.5H15.4999M11.9999 8.5L11.9999 21.5" stroke="currentColor" stroke-linecap="round"/><path d="M21.6749 10.9033C21.3048 12.2069 20.1052 13.1609 18.684 13.1609C17.2628 13.1609 16.0632 12.2069 15.6931 10.9033C15.6698 10.821 15.6883 10.7505 15.7485 10.6849C15.8157 10.6116 15.9338 10.5522 16.0753 10.5522H21.2927C21.4343 10.5522 21.5523 10.6116 21.6196 10.6849C21.6798 10.7505 21.6983 10.821 21.6749 10.9033Z" stroke="currentColor" stroke-linejoin="round"/><path d="M18.684 5L19.1371 4.78856C19.055 4.61252 18.8783 4.5 18.684 4.5C18.4898 4.5 18.3131 4.61252 18.231 4.78856L18.684 5ZM20.757 10.6245C20.8738 10.8747 21.1713 10.9829 21.4216 10.8661C21.6718 10.7494 21.78 10.4518 21.6632 10.2016L20.757 10.6245ZM16.6111 10.6245L19.1371 5.21144L18.231 4.78856L15.7049 10.2016L16.6111 10.6245ZM18.231 5.21144L20.757 10.6245L21.6632 10.2016L19.1371 4.78856L18.231 5.21144Z" fill="currentColor"/><path d="M8.68358 14.5112C8.31349 15.8148 7.11386 16.7689 5.69268 16.7689C4.27151 16.7689 3.07188 15.8148 2.70179 14.5112C2.67843 14.4289 2.69692 14.3584 2.75713 14.2928C2.8244 14.2195 2.94242 14.1602 3.08398 14.1602H8.30138C8.44295 14.1602 8.56097 14.2195 8.62824 14.2928C8.68844 14.3584 8.70694 14.4289 8.68358 14.5112Z" stroke="currentColor" stroke-linejoin="round"/><path d="M5.69259 8.6084L6.14569 8.39696C6.06353 8.22092 5.88686 8.1084 5.69259 8.1084C5.49833 8.1084 5.32165 8.22092 5.2395 8.39696L5.69259 8.6084ZM7.76559 14.2329C7.88237 14.4831 8.17989 14.5913 8.43013 14.4745C8.68036 14.3578 8.78855 14.0602 8.67178 13.81L7.76559 14.2329ZM3.6196 14.2329L6.14569 8.81984L5.2395 8.39696L2.71341 13.81L3.6196 14.2329ZM5.2395 8.81984L7.76559 14.2329L8.67178 13.81L6.14569 8.39696L5.2395 8.81984Z" fill="currentColor"/><circle cx="12" cy="7" r="1.5" stroke="currentColor"/><path d="M13.4489 6.11197L21.1763 4.04142M2.82373 8.95898L10.0682 7.01784" stroke="currentColor" stroke-linecap="round"/></svg>

<svg xmlns="http://www.w3.org/2000/svg" fill="none" viewBox="0 0 24 24" width="1em" height="1em"><path stroke="currentColor" stroke-linecap="round" d="M8.5 21.5h7M12 8.5v13"/><path stroke="currentColor" stroke-linejoin="round" d="M21.675 10.903a3.11 3.11 0 0 1-5.982 0 .215.215 0 0 1 .056-.218.447.447 0 0 1 .326-.133h5.218c.141 0 .26.06.327.133.06.066.078.136.055.218Z"/><path fill="currentColor" d="m18.684 5 .453-.211a.5.5 0 0 0-.906 0l.453.211Zm2.073 5.624a.5.5 0 0 0 .906-.422l-.906.422Zm-4.146 0 2.526-5.413-.906-.422-2.526 5.413.906.422Zm1.62-5.413 2.526 5.413.906-.422-2.526-5.413-.906.422Z"/><path stroke="currentColor" stroke-linejoin="round" d="M8.684 14.511a3.11 3.11 0 0 1-5.982 0 .215.215 0 0 1 .055-.218.448.448 0 0 1 .327-.133h5.217c.142 0 .26.06.327.133.06.065.079.136.056.218Z"/><path fill="currentColor" d="m5.693 8.608.453-.211a.5.5 0 0 0-.907 0l.454.211Zm2.073 5.625a.5.5 0 0 0 .906-.423l-.906.423Zm-4.146 0L6.146 8.82l-.907-.423-2.526 5.413.907.423ZM5.24 8.82l2.526 5.413.906-.423-2.526-5.413-.907.423Z"/><circle cx="12" cy="7" r="1.5" stroke="currentColor"/><path stroke="currentColor" stroke-linecap="round" d="m13.449 6.112 7.727-2.07M2.824 8.958l7.244-1.941"/></svg>
